svgs/sharp-solid/hand-lizard.svg

<svg xmlns="http://www.w3.org/2000/svg" viewBox="0 0 512 512"><!--! Font Awesome Pro 6.6.0 by @fontawesome - https://fontawesome.com License - https://fontawesome.com/license (Commercial License) Copyright 2024 Fonticons, Inc. --><path d="M0 64l48 0 112 0 80 0 80 0 25.1 0 14.3 20.7 144 208L512 305l0 15 0 32 0 16 0 80-160 0 0-45.8L273.9 352 240 352l-80 0-48 0-48 0 0-96 48 0 48 0 80 0c26.5 0 48-21.5 48-48s-21.5-48-48-48l-80 0L48 160 0 160 0 64z"/></svg>

<svg xmlns="http://www.w3.org/2000/svg" viewBox="0 0 512 512"><!--! Font Awesome Pro 6.4.0 by @fontawesome - https://fontawesome.com License - https://fontawesome.com/license (Commercial License) Copyright 2023 Fonticons, Inc. --><path d="M0 64H48 160h80 80 25.1l14.3 20.7 144 208L512 305v15 32 16 80H352V402.2L273.9 352H240 160 112 64V256h48 48 80c26.5 0 48-21.5 48-48s-21.5-48-48-48H160 48 0V64z"/></svg>
